gama.ui.shared/icons_svg/light/layer/layer.chart.svg

<svg height="24.75" viewBox="-869.207 -4079.201 24.75 24.75" width="24.75" xmlns="http://www.w3.org/2000/svg"><g fill="none"><path d="m-864.9923-4078.826h16.32c2.1207 0 3.84 1.7193 3.84 3.84v16.32c0 2.121-1.7193 3.84-3.84 3.84h-16.32c-2.1208 0-3.84-1.719-3.84-3.84v-16.32c0-2.1207 1.7192-3.84 3.84-3.84z" fill="#66727e"/><path d="m-850.3498-4071.826h-2.4825c-.2455 0-.4445-.224-.4445-.5s.199-.5.4445-.5h3.5555c.2455 0 .4445.224.4445.5v4c0 .276-.199.5-.4445.5-.2454 0-.4444-.224-.4444-.5v-2.793l-4.5746 5.1466c-.1736.1954-.455.1954-.6286 0l-2.3524-2.6466-3.2413 3.6466c-.1735.1954-.4549.1954-.6285 0-.1736-.1953-.1736-.5118 0-.7071l3.5556-4c.1735-.1955.4549-.1955.6285 0l2.3524 2.6465zm1.073 10c.2455 0 .4445.224.4445.5s-.199.5-.4445.5h-13.3333c-1.2273 0-2.2222-1.1192-2.2222-2.5v-9c0-.276.199-.5.4444-.5.2455 0 .4445.224.4445.5v9c0 .8285.5969 1.5 1.3333 1.5z" fill="#fff"/></g></svg>

<?xml version="1.0" encoding="UTF-8" standalone="no"?>
<!DOCTYPE svg PUBLIC "-//W3C//DTD SVG 1.1//EN" "http://www.w3.org/Graphics/SVG/1.1/DTD/svg11.dtd">
<svg version="1.1" xmlns="http://www.w3.org/2000/svg" xmlns:xl="http://www.w3.org/1999/xlink" xmlns:dc="http://purl.org/dc/elements/1.1/" viewBox="-869.2073 -4079.201 24.75 24.75" width="24.75" height="24.75">
  <defs/>
  <g id="SOURCES" stroke-dasharray="none" fill="none" stroke="none" fill-opacity="1" stroke-opacity="1">
    <title>SOURCES</title>
    <g id="SOURCES_Calque_2">
      <title>Calque 2</title>
      <g id="Graphic_8742">
        <title>views/view.other</title>
        <path d="M -864.9923 -4078.826 L -848.6723 -4078.826 C -846.5516 -4078.826 -844.8323 -4077.1067 -844.8323 -4074.986 L -844.8323 -4058.666 C -844.8323 -4056.545 -846.5516 -4054.826 -848.6723 -4054.826 L -864.9923 -4054.826 C -867.1131 -4054.826 -868.8323 -4056.545 -868.8323 -4058.666 L -868.8323 -4074.986 C -868.8323 -4077.1067 -867.1131 -4078.826 -864.9923 -4078.826 Z" fill="#66727e"/>
      </g>
      <g id="Graphic_8743">
        <path d="M -850.3498 -4071.826 L -852.8323 -4071.826 C -853.0778 -4071.826 -853.2768 -4072.05 -853.2768 -4072.326 C -853.2768 -4072.602 -853.0778 -4072.826 -852.8323 -4072.826 L -849.2768 -4072.826 C -849.0313 -4072.826 -848.8323 -4072.602 -848.8323 -4072.326 L -848.8323 -4068.326 C -848.8323 -4068.05 -849.0313 -4067.826 -849.2768 -4067.826 C -849.5222 -4067.826 -849.7212 -4068.05 -849.7212 -4068.326 L -849.7212 -4071.119 L -854.2958 -4065.9724 C -854.4694 -4065.777 -854.7508 -4065.777 -854.9244 -4065.9724 L -857.2768 -4068.619 L -860.5181 -4064.9724 C -860.6916 -4064.777 -860.973 -4064.777 -861.1466 -4064.9724 C -861.3202 -4065.1677 -861.3202 -4065.4842 -861.1466 -4065.6795 L -857.591 -4069.6795 C -857.4175 -4069.875 -857.1361 -4069.875 -856.9625 -4069.6795 L -854.6101 -4067.033 L -850.3498 -4071.826 Z M -849.2768 -4061.826 C -849.0313 -4061.826 -848.8323 -4061.602 -848.8323 -4061.326 C -848.8323 -4061.05 -849.0313 -4060.826 -849.2768 -4060.826 L -862.6101 -4060.826 C -863.8374 -4060.826 -864.8323 -4061.9452 -864.8323 -4063.326 L -864.8323 -4072.326 C -864.8323 -4072.602 -864.6333 -4072.826 -864.3879 -4072.826 C -864.1424 -4072.826 -863.9434 -4072.602 -863.9434 -4072.326 L -863.9434 -4063.326 C -863.9434 -4062.4975 -863.3465 -4061.826 -862.6101 -4061.826 Z" fill="white"/>
      </g>
    </g>
  </g>
</svg>
